icons/gradlekotlin.svg

<svg width="16" height="16" viewBox="0 0 16 16" fill="none" xmlns="http://www.w3.org/2000/svg">
<path fill-rule="evenodd" clip-rule="evenodd" d="M12.0351 3.00032C12.5283 3.01001 12.999 3.23682 13.3478 3.6329C13.8374 4.19187 14.3728 5.43013 13.641 7H10.5C9 7 8.5 7.5 8.5 9V11.6399C8.40058 11.6111 8.29768 11.5962 8.19354 11.5962C7.89272 11.5962 7.60216 11.7205 7.37612 11.9458C7.15007 12.1711 7.00397 12.4821 6.96508 12.8207C6.95968 12.8702 6.93852 12.9157 6.9056 12.9487C6.87268 12.9818 6.83026 13 6.78632 13H5.96319C5.9191 13 5.8765 12.9819 5.84335 12.9489C5.8102 12.9159 5.78877 12.8703 5.78304 12.8207C5.74538 12.4812 5.59986 12.169 5.3738 11.9427C5.14774 11.7164 4.85669 11.5915 4.55528 11.5915C4.25386 11.5915 3.96281 11.7164 3.73675 11.9427C3.51069 12.169 3.36517 12.4812 3.32751 12.8207C3.3221 12.8702 3.30094 12.9157 3.26802 12.9487C3.2351 12.9818 3.19268 13 3.14875 13H2.30344C2.26152 12.9995 2.22103 12.9826 2.18874 12.9523C2.15645 12.9219 2.13432 12.8799 2.12607 12.8333C1.66184 10.0412 2.52655 7.84062 3.95109 6.69864L4.69246 8.15365C4.78071 8.3246 4.90682 8.46637 5.05826 8.56488C5.20971 8.66339 5.38123 8.71522 5.55578 8.7152C5.72477 8.71598 5.891 8.66664 6.03802 8.57206L6.38584 8.35184H6.39693C6.806 8.06674 7.19226 7.74146 7.55125 7.37974C7.57047 7.35984 7.58572 7.33551 7.596 7.30839C7.60627 7.28126 7.61133 7.25196 7.61084 7.22244C7.61069 7.19211 7.60451 7.16221 7.59275 7.13497C7.58099 7.10774 7.56396 7.08386 7.54294 7.06514C7.50802 7.03114 7.46353 7.01245 7.41753 7.01245C7.37152 7.01245 7.32704 7.03114 7.29212 7.06514C6.95128 7.40949 6.58502 7.71998 6.19738 7.9932L5.84956 8.21499L5.8648 8.20241L5.8454 8.21499C5.70286 8.30516 5.53481 8.32815 5.37748 8.27902C5.22014 8.22988 5.08611 8.11255 5.00426 7.95231L4.21993 6.41236C4.17739 6.32761 4.15079 6.23378 4.14178 6.13678C4.13278 6.03978 4.14157 5.94171 4.16761 5.84876C4.19365 5.75581 4.23636 5.66998 4.29307 5.5967C4.34977 5.52342 4.41923 5.46426 4.49707 5.42295C7.17108 3.97884 8.971 5.01923 10.3067 5.79128C11.2566 6.34036 11.9718 6.75372 12.5995 6.04113C12.7526 5.86812 12.8569 5.64733 12.8992 5.40685C12.9414 5.16637 12.9198 4.91705 12.8369 4.6906C12.754 4.46414 12.6136 4.27078 12.4337 4.1351C12.2537 3.99942 12.0423 3.92755 11.8263 3.92862C11.5908 3.92782 11.3615 4.01456 11.1736 4.17558C11.1387 4.20528 11.0955 4.21971 11.052 4.21625C11.0085 4.21278 10.9675 4.19164 10.9366 4.1567L10.6997 3.87829C10.6653 3.83831 10.6459 3.78473 10.6456 3.72885C10.6463 3.70107 10.6517 3.6737 10.6617 3.64833C10.6717 3.62295 10.686 3.60007 10.7038 3.58099C11.0645 3.19884 11.5418 2.99064 12.0351 3.00032Z" fill="#1D9BB7"/>
<path fill-rule="evenodd" clip-rule="evenodd" d="M9.2939 8.76L9.2939 10.5V12.24C9.2939 12.5161 9.40582 12.7661 9.58679 12.9471C9.76775 13.1281 10.0178 13.24 10.2939 13.24H13.5668C14.0122 13.24 14.2353 12.7014 13.9203 12.3864L12.0339 10.5L13.9203 8.61355C14.2353 8.29857 14.0122 7.76 13.5668 7.76L12.0339 7.76L10.2939 7.76C9.74161 7.76 9.2939 8.20772 9.2939 8.76ZM12.0339 10.5L10.2072 12.3267L9.58679 12.9471L10.2072 12.3267L12.0339 10.5Z" fill="url(#paint0_linear_1107_550)"/>
<defs>
<linearGradient id="paint0_linear_1107_550" x1="9.50524" y1="7.98834" x2="13.9086" y2="13.1367" gradientUnits="userSpaceOnUse">
<stop stop-color="#95A6FF"/>
<stop offset="1" stop-color="#6938D0"/>
</linearGradient>
</defs>
</svg>

<svg xmlns="http://www.w3.org/2000/svg" width="16" height="16" fill="none"><path fill="#1D9BB7" fill-rule="evenodd" d="M12.035 3a1.8 1.8 0 0 1 1.313.633c.49.559 1.025 1.797.293 3.367H10.5c-1.5 0-2 .5-2 2v2.64a1.1 1.1 0 0 0-.306-.044c-.301 0-.592.124-.818.35a1.472 1.472 0 0 0-.41.875.214.214 0 0 1-.06.128.168.168 0 0 1-.12.051h-.823a.17.17 0 0 1-.12-.051.216.216 0 0 1-.06-.128 1.472 1.472 0 0 0-.41-.878 1.157 1.157 0 0 0-.818-.351c-.301 0-.592.124-.818.35a1.472 1.472 0 0 0-.41.879.214.214 0 0 1-.059.128.168.168 0 0 1-.12.051h-.845a.17.17 0 0 1-.114-.048.215.215 0 0 1-.063-.119c-.464-2.792.4-4.992 1.825-6.134l.741 1.455c.089.17.215.312.366.41a.91.91 0 0 0 .498.151.882.882 0 0 0 .482-.143l.348-.22h.01c.41-.285.796-.61 1.155-.972a.21.21 0 0 0 .045-.072.232.232 0 0 0-.003-.173.199.199 0 0 0-.05-.07.18.18 0 0 0-.125-.053.18.18 0 0 0-.126.053c-.34.344-.707.655-1.095.928l-.347.222.015-.013-.02.013a.557.557 0 0 1-.468.064.64.64 0 0 1-.373-.327l-.784-1.54a.775.775 0 0 1-.052-.563.736.736 0 0 1 .125-.252.636.636 0 0 1 .204-.174c2.674-1.444 4.474-.404 5.81.368.95.55 1.665.963 2.293.25.153-.173.257-.394.3-.634.041-.24.02-.49-.063-.716a1.216 1.216 0 0 0-.403-.556.997.997 0 0 0-1.26.04.167.167 0 0 1-.122.041.173.173 0 0 1-.115-.06l-.237-.278a.232.232 0 0 1-.054-.15c0-.027.006-.054.016-.08a.213.213 0 0 1 .042-.067c.36-.382.838-.59 1.331-.58Z" clip-rule="evenodd"/><path fill="url(#a)" fill-rule="evenodd" d="M9.294 8.76v3.48a.997.997 0 0 0 1 1h3.273a.5.5 0 0 0 .353-.854L12.034 10.5l1.886-1.886a.5.5 0 0 0-.353-.854H10.294a1 1 0 0 0-1 1Zm2.74 1.74-1.827 1.827-.62.62.62-.62 1.827-1.827Z" clip-rule="evenodd"/><defs><linearGradient id="a" x1="9.505" x2="13.909" y1="7.988" y2="13.137" gradientUnits="userSpaceOnUse"><stop stop-color="#95A6FF"/><stop offset="1" stop-color="#6938D0"/></linearGradient></defs></svg>
